X: 34850
T: Roaring Water
R: jig
M: 6/8
K: Dmixolydian
FDD E3|DEF GAB|ABc ded|cAF GAG|
FDD EFE|DEF GAB|ABc dcA|GED D3:|
FDD A3|(3ABc B AGF|G3 GFG|ABA FED|
FDD ADD|(3ABc A d2 B|cdc BAG|BAA A2 G:|
G3 GFG|B3 AFD|D3 AFD|
E3 DEF|G3 GFG|B3 AFD|
D3 AFD|1 E3 DEF:|2 E3 D2 B||
cdc BAG|BAA A2G|FDD GEE|
FGA BAB|cdc BAG|BAA A2G|
FDD ADD|1 DEF G2 B:|2 DEF G (3ABc||
d^cd AFA|cde d2 e|fAA gAA|
age cde|d3 AFA|cde d2 B|
cBc EFG|1 FGA B(3AB^c:|2 FGA BAG||

